X:1
T:SCOTCH ON THE ROCKS  "CYMRU - NOTE:- The '1 & '2 Refer to Pipers 1 and
M:C
L:1/8
Q:80
C:
S:Quickstep
K:HP
[| e2 | \
{g}c{g}c3/4d/4{g}B{g}B3/4c/4{g}A2{g}AB | \
{g}cd{g}ef{g}f2{g}e2 |
{g}c{g}c3/4d/4{g}B{g}B3/4c/4A2{g}Aa3/4g/4 | \
a{g}a3/4g/4a{g}a3/4f/4{g}e2{Gdc}d2| [ | \
{g}c{g}c3/4d/4{g}B{g}B3/4c/4{g}A2{g}AB |
{g}cd{g}ef{g}f2{g}e2 | \
{g}c{g}c3/4d/4{g}B{g}B3/4c/4A2{g}AB | \
{GdG}c2{g}c2{g}dB{g}B2{G}A2|1 [ |
{g}fd3/4e/4{g}fd3/4e/4{g}f4 | \
{g}ec3/4d/4{g}ec3/4d/4{g}e4 | \
{Gdc}dB3/4c/4{Gdc}dB3/4c/4{Gdc}d4 |
{gcd}cB/2c/2{g}dc/2d/2{gef}e4:|2 [ | \
{g}fd/2e/2{g}fd/2e/2{g}fa{f}gf | \
{g}ec/2d/2{g}ec/2d/2{g}eg{a}fe |
{Gdc}dB/2c/2{Gdc}dB/2c/2{Gdc}df{g}ed | \
{gcd}cA{g}B{g}c/2B/2{G}A4|]
